X: 21372
M: C
L: 1/8
K: D
(A/G/) |\
faad fdad | gbb>e gebe |
faa>g fdaf | g(b/g/) f(a/f/) e2 d(a/g/) |\
faa>d fdad | gbb>e gebe |\
f<ae<f d<eB<d | {B}A(G/F/) (d/c/d/F/) E2D |]


